X:360
T: Kilcummin
S: "Johnny O'Leary of Sliabh Luachra" (#91)
Z: B.Black
L: 1/8
M: 12/8
R: slide
Q: 350
K: G
gfg ded B2d G2B|AGA DFA G2A def|
gdd ded B2G GFG|1 AGA DFA G3 G3 :|2\
AGA DFA G3 G2B||
d2g gfg b2b bag|a2g e2f gfg edB|
Agg gfg b2b bag|1 faa e2f g3 g2e :|2\
faa e2f g3 g3 ||
